src/assets/tokens/ethereum.svg

<svg width="24" height="24" viewBox="0 0 24 24" fill="none" xmlns="http://www.w3.org/2000/svg">
<g clip-path="url(#clip0_2225_26162)">
<g clip-path="url(#clip1_2225_26162)">
<path d="M12 24C18.6274 24 24 18.6274 24 12C24 5.37258 18.6274 0 12 0C5.37258 0 0 5.37258 0 12C0 18.6274 5.37258 24 12 24Z" fill="#F9FAFB"/>
<path d="M23.5 12C23.5 18.3513 18.3513 23.5 12 23.5C5.64872 23.5 0.5 18.3513 0.5 12C0.5 5.64872 5.64872 0.5 12 0.5C18.3513 0.5 23.5 5.64872 23.5 12Z" stroke="black" stroke-opacity="0.1"/>
<path d="M6.86914 12.1524L12.0584 15.1651L12.924 8.77026L6.86914 12.1524Z" fill="#393939"/>
<path d="M12.0583 3.69482L9.59961 12.3622L17.2469 12.1521L12.0583 3.69482Z" fill="#343434"/>
<path d="M12.0584 3.69482L6.86914 12.1521L12.0584 9.83365V3.69482Z" fill="#8C8C8C"/>
<path d="M12.0584 20.3019L12.186 16.2004L6.86914 13.1187L12.0584 20.3019Z" fill="#8C8C8C"/>
<path d="M12.0576 16.1306V20.3019L17.2497 13.1187L12.0576 16.1306Z" fill="#3C3C3B"/>
<path d="M12.0586 15.1647L17.2472 12.1521L12.0586 9.83496V15.1647Z" fill="#141414"/>
</g>
</g>
<defs>
<clipPath id="clip0_2225_26162">
<rect width="24" height="24" fill="white"/>
</clipPath>
<clipPath id="clip1_2225_26162">
<rect width="24" height="24" fill="white"/>
</clipPath>
</defs>
</svg>

<svg xmlns="http://www.w3.org/2000/svg" width="24" height="24" fill="none"><g clip-path="url(#a)"><g clip-path="url(#b)"><path fill="#F9FAFB" d="M12 24c6.627 0 12-5.373 12-12S18.627 0 12 0 0 5.373 0 12s5.373 12 12 12"/><path stroke="#000" stroke-opacity=".1" d="M23.5 12c0 6.351-5.149 11.5-11.5 11.5S.5 18.351.5 12 5.649.5 12 .5 23.5 5.649 23.5 12Z"/><path fill="#393939" d="m6.87 12.152 5.188 3.013.866-6.395z"/><path fill="#343434" d="M12.058 3.695 9.6 12.362l7.647-.21z"/><path fill="#8C8C8C" d="M12.058 3.695 6.87 12.152l5.19-2.318zm0 16.607.128-4.102-5.317-3.081z"/><path fill="#3C3C3B" d="M12.058 16.13v4.172l5.192-7.183z"/><path fill="#141414" d="m12.059 15.165 5.188-3.013-5.188-2.317z"/></g></g><defs><clipPath id="a"><path fill="#fff" d="M0 0h24v24H0z"/></clipPath><clipPath id="b"><path fill="#fff" d="M0 0h24v24H0z"/></clipPath></defs></svg>
